Sources/FrostedUI/Resources/Icons.xcassets/calendarX24.imageset/calendar-x-24.svg

<svg width="24" height="24" viewBox="0 0 24 24" fill="none" xmlns="http://www.w3.org/2000/svg" data-fui-icon="true">
  <path
    d="M16.25 2C16.6642 2 17 2.33579 17 2.75V4H18.25C19.7688 4 21 5.23122 21 6.75V18.25C21 19.7688 19.7688 21 18.25 21H5.75C4.23122 21 3 19.7688 3 18.25V6.75C3 5.23122 4.23122 4 5.75 4H7V2.75C7 2.33579 7.33579 2 7.75 2C8.16421 2 8.5 2.33579 8.5 2.75V4H15.5V2.75C15.5 2.33579 15.8358 2 16.25 2ZM5.75 5.5C5.05964 5.5 4.5 6.05964 4.5 6.75V18.25C4.5 18.9404 5.05964 19.5 5.75 19.5H18.25C18.9404 19.5 19.5 18.9404 19.5 18.25V6.75C19.5 6.05964 18.9404 5.5 18.25 5.5H5.75ZM13.9717 9.46973C14.2646 9.17696 14.7394 9.17688 15.0322 9.46973C15.325 9.76259 15.325 10.2374 15.0322 10.5303L13.0605 12.502L15.0303 14.4717C15.3229 14.7646 15.3231 15.2394 15.0303 15.5322C14.7375 15.825 14.2626 15.8248 13.9697 15.5322L12 13.5625L10.0303 15.5322C9.73741 15.825 9.26259 15.825 8.96973 15.5322C8.67688 15.2394 8.67696 14.7646 8.96973 14.4717L10.9395 12.502L8.96777 10.5303C8.67488 10.2374 8.67488 9.76262 8.96777 9.46973C9.26067 9.17685 9.73543 9.17684 10.0283 9.46973L12 11.4414L13.9717 9.46973Z"
    fill="currentColor"
  />
</svg>

<svg xmlns="http://www.w3.org/2000/svg" width="24" height="24" fill="none" data-fui-icon="true" viewBox="0 0 24 24"><path fill="currentColor" d="M16.25 2a.75.75 0 0 1 .75.75V4h1.25A2.75 2.75 0 0 1 21 6.75v11.5A2.75 2.75 0 0 1 18.25 21H5.75A2.75 2.75 0 0 1 3 18.25V6.75A2.75 2.75 0 0 1 5.75 4H7V2.75a.75.75 0 0 1 1.5 0V4h7V2.75a.75.75 0 0 1 .75-.75M5.75 5.5c-.69 0-1.25.56-1.25 1.25v11.5c0 .69.56 1.25 1.25 1.25h12.5c.69 0 1.25-.56 1.25-1.25V6.75c0-.69-.56-1.25-1.25-1.25zm8.222 3.97a.75.75 0 0 1 1.06 1.06l-1.972 1.972 1.97 1.97a.75.75 0 0 1-1.06 1.06L12 13.562l-1.97 1.97a.75.75 0 0 1-1.06-1.06l1.97-1.97-1.972-1.972a.75.75 0 1 1 1.06-1.06L12 11.44z"/></svg>
